layouts/icon-pack/spell_feather.svg

<?xml version="1.0" encoding="UTF-8"?>
<svg width="1200pt" height="1200pt" version="1.1" viewBox="0 0 1200 1200" xmlns="http://www.w3.org/2000/svg">
 <path d="m1109.8 56.508c-43.969 20.227-119.67 66.07-182.81 98.438-28.906 14.875-58.484 28.406-88.734 40.594-69.469 27.867-221.48 98.695-363.52 231.28-3.8281 3.5664-6.6406 8.0898-8.1484 13.102-1.5078 5.0117-1.6562 10.332-0.42969 15.422l12.938 52.922c1.043 4.2656 0.54297 8.7656-1.4102 12.703-1.9531 3.9336-5.2383 7.0469-9.2695 8.7969-4.0312 1.7461-8.5508 2.0078-12.758 0.74219l-43.945-13.102c-5.5469-1.6523-11.453-1.6289-16.988 0.0625-5.5312 1.6953-10.441 4.9805-14.113 9.4531-86.156 104.88-159.26 237.56-193.97 403.12-2.8633 13.766-9.0156 26.629-17.93 37.5l-104.65 127.76c-6.4844 8.5039-8.1758 19.73-4.4844 29.766 3.6914 10.039 12.25 17.496 22.699 19.773 10.449 2.2812 21.336-0.93359 28.871-8.5234l121.71-114.21 0.23438-0.21094c164.27-239.84 451.15-540.42 465.23-555.14 5.8906-6.1484 14.613-8.6914 22.887-6.6641 8.2734 2.0273 14.832 8.3125 17.215 16.488 2.3828 8.1758 0.21875 17.004-5.6719 23.152-3.0234 3.1641-234.38 245.51-400.59 466.41-2.7109 3.6133-3.8789 8.1484-3.2539 12.621 0.625 4.4688 2.9961 8.5117 6.5898 11.242 3.5977 2.7266 8.1289 3.9258 12.602 3.3242 109.67-14.625 214.72-53.426 307.57-113.6 5.4766-3.543 9.625-8.8047 11.793-14.961 2.168-6.1523 2.2305-12.852 0.18359-19.047l-25.57-76.688c-1.4453-4.2617-0.32422-8.9766 2.8906-12.129 3.2109-3.1523 7.9453-4.1875 12.18-2.6602l90.539 32.109c5.2539 1.8594 10.93 2.1875 16.363 0.94141 5.4297-1.2461 10.398-4.0117 14.316-7.9727 33.898-34.457 64.625-71.898 91.805-111.87 3.1016-4.5547 4.8594-9.8906 5.0742-15.398 0.21484-5.5078-1.1211-10.965-3.8555-15.75l-41.109-71.977c-2.0391-3.5586-2.6719-7.75-1.7734-11.754 0.89844-4.0039 3.2617-7.5234 6.6289-9.8672 3.3633-2.3438 7.4844-3.3438 11.551-2.8008l68.977 9.375c6.1875 0.83984 12.48-0.31641 17.961-3.3047 5.4844-2.9922 9.8672-7.6562 12.508-13.312 1.8281-3.9062 3.6328-7.8516 5.4141-11.836 0.28125-0.625 0.53906-1.2578 0.77344-1.8984 5.2031-14.062 65.953-177.47 95.414-265.83 16.008-48.047 64.148-121.2 90.914-163.36 12.445-19.43-8.0391-42.867-28.852-33.234z" fill="#fff"/>
</svg>

<?xml version="1.0" encoding="UTF-8" standalone="no"?>
<!DOCTYPE svg PUBLIC "-//W3C//DTD SVG 1.1//EN" "http://www.w3.org/Graphics/SVG/1.1/DTD/svg11.dtd">
<svg width="100%" height="100%" viewBox="0 0 509 512" version="1.1" xmlns="http://www.w3.org/2000/svg" xmlns:xlink="http://www.w3.org/1999/xlink" xml:space="preserve" xmlns:serif="http://www.serif.com/" style="fill-rule:evenodd;clip-rule:evenodd;stroke-linejoin:round;stroke-miterlimit:2;">
    <g transform="matrix(1,0,0,1,-57.6547,-54.2689)">
        <g transform="matrix(0.469169,0,0,0.469169,30.6049,28.8077)">
            <path d="M1109.8,56.508C1065.83,76.735 990.13,122.578 926.99,154.946C898.084,169.821 868.506,183.352 838.256,195.54C768.787,223.407 616.776,294.235 474.736,426.82C470.908,430.386 468.095,434.91 466.588,439.922C465.08,444.934 464.931,450.254 466.158,455.344L479.096,508.266C480.139,512.532 479.639,517.032 477.686,520.969C475.733,524.903 472.447,528.016 468.416,529.766C464.385,531.512 459.865,531.774 455.658,530.508L411.713,517.406C406.166,515.754 400.26,515.777 394.725,517.469C389.194,519.164 384.284,522.449 380.612,526.922C294.456,631.802 221.352,764.482 186.642,930.042C183.779,943.808 177.627,956.671 168.712,967.542L64.062,1095.3C57.578,1103.81 55.886,1115.03 59.578,1125.07C63.269,1135.11 71.828,1142.56 82.277,1144.84C92.726,1147.12 103.613,1143.91 111.148,1136.32L232.858,1022.11L233.092,1021.9C397.362,782.056 684.242,481.476 698.322,466.756C704.213,460.608 712.935,458.065 721.209,460.092C729.483,462.12 736.041,468.405 738.424,476.58C740.807,484.756 738.643,493.584 732.752,499.732C729.729,502.896 498.372,745.242 332.162,966.142C329.451,969.756 328.283,974.291 328.908,978.763C329.533,983.232 331.904,987.275 335.498,990.005C339.096,992.732 343.627,993.931 348.1,993.329C457.77,978.704 562.82,939.903 655.67,879.729C661.147,876.186 665.295,870.925 667.463,864.768C669.631,858.616 669.694,851.916 667.647,845.721L642.077,769.033C640.631,764.772 641.753,760.057 644.967,756.904C648.178,753.752 652.913,752.717 657.147,754.244L747.686,786.353C752.94,788.213 758.616,788.541 764.049,787.295C769.479,786.049 774.447,783.283 778.365,779.322C812.263,744.865 842.99,707.424 870.17,667.452C873.272,662.897 875.03,657.561 875.245,652.054C875.459,646.546 874.123,641.089 871.389,636.304L830.28,564.327C828.241,560.768 827.608,556.577 828.507,552.573C829.405,548.569 831.768,545.05 835.136,542.706C838.499,540.362 842.62,539.362 846.687,539.905L915.664,549.28C921.851,550.12 928.144,548.964 933.625,545.975C939.109,542.983 943.492,538.319 946.133,532.663C947.961,528.757 949.765,524.812 951.547,520.827C951.828,520.202 952.086,519.569 952.32,518.929C957.523,504.867 1018.27,341.459 1047.73,253.099C1063.74,205.052 1111.88,131.899 1138.65,89.739C1151.09,70.309 1130.61,46.872 1109.8,56.505L1109.8,56.508Z" style="fill:white;fill-rule:nonzero;"/>
        </g>
    </g>
</svg>
